KINDER
CUT[HAESCHEN IN DER GRUBE]
REG[Europa, Mitteleuropa, Deutschland]
KEY[K2409  08  F 2/4]
MEL[  1234  5_5_
    6_+16  5_0_
    5444  433_
    3222  211_
    135_  531_ //] >>
FCT[Kinder - Lied, Tanz -, Lauf - Spiel]
